packages/core/src/svgs/ctxc.svg

<svg width="24" height="24" viewBox="0 0 24 24" fill="none" xmlns="http://www.w3.org/2000/svg">
<g clip-path="url(#clip0_31_8851)">
<path d="M0 0H24V24H0V0Z" fill="url(#paint0_linear_31_8851)"/>
<path d="M11.9357 5.39574C11.8457 5.18574 12.1757 5.03574 12.2657 5.23717L18.6814 16.4957C18.57 16.4957 18.4585 16.4572 18.3514 16.44L12.6385 15.2829C12.4543 15.2743 12.4114 14.9657 12.5957 14.9186L14.8328 14.2929C14.8608 14.2869 14.8869 14.2745 14.9092 14.2566C14.9316 14.2388 14.9494 14.216 14.9614 14.19C14.9733 14.1645 14.9794 14.1367 14.9794 14.1086C14.9794 14.0805 14.9733 14.0527 14.9614 14.0272L11.9357 5.39146V5.39574Z" fill="url(#paint1_linear_31_8851)"/>
<path d="M11.6057 5.41309C11.6271 5.44309 11.6485 5.47737 11.6614 5.51166C12.3385 7.46594 13.0328 9.42023 13.7057 11.3745C13.7657 11.5374 13.5385 11.6745 13.4314 11.5502C12.8528 10.9374 12.3043 10.3074 11.7385 9.69023C11.6485 9.60451 11.5157 9.66023 11.4557 9.75023L5.56711 16.7917C5.49854 16.8645 5.43854 16.9759 5.32711 16.9888C5.24139 16.9888 5.18997 16.9245 5.14282 16.8602V16.7531C7.29854 12.9731 9.45425 9.19737 11.6057 5.41309Z" fill="url(#paint2_linear_31_8851)"/>
<path d="M9.80569 12.1199C9.91712 12.0856 10.0628 12.1628 10.0243 12.2999C9.79712 13.1099 9.55283 13.9156 9.31712 14.7171C9.27855 14.8199 9.37284 14.9142 9.46712 14.9185C12.5485 15.5485 15.63 16.1999 18.7114 16.8256C18.7714 16.8342 18.81 16.8814 18.8571 16.9199V17.0485L18.7714 17.1428H5.69141C7.06283 15.4714 8.42998 13.7828 9.80569 12.1199Z" fill="url(#paint3_linear_31_8851)"/>
</g>
<defs>
<linearGradient id="paint0_linear_31_8851" x1="4.46571" y1="4.16143" x2="29.2071" y2="32.58" gradientUnits="userSpaceOnUse">
<stop stop-color="#1A1E21"/>
<stop offset="1" stop-color="#06060A"/>
</linearGradient>
<linearGradient id="paint1_linear_31_8851" x1="11.9185" y1="5.14288" x2="18.8571" y2="16.3886" gradientUnits="userSpaceOnUse">
<stop stop-color="#307CC0"/>
<stop offset="1" stop-color="#58BFDC"/>
</linearGradient>
<linearGradient id="paint2_linear_31_8851" x1="12.5185" y1="7.96737" x2="4.98854" y2="16.8602" gradientUnits="userSpaceOnUse">
<stop stop-color="#388BC7"/>
<stop offset="1" stop-color="#58BFDC"/>
</linearGradient>
<linearGradient id="paint3_linear_31_8851" x1="5.69141" y1="17.1428" x2="18.1457" y2="17.1428" gradientUnits="userSpaceOnUse">
<stop stop-color="#ACADAD"/>
<stop offset="0.47" stop-color="#DEDFDF"/>
<stop offset="1" stop-color="#B1B2B2"/>
</linearGradient>
<clipPath id="clip0_31_8851">
<rect width="24" height="24" fill="white"/>
</clipPath>
</defs>
</svg>

<svg xmlns="http://www.w3.org/2000/svg" width="24" height="24" fill="none" viewBox="0 0 24 24"><g clip-path="url(#a)"><path fill="url(#b)" d="M0 0h24v24H0z"/><path fill="url(#c)" d="M11.936 5.396c-.09-.21.24-.36.33-.159l6.415 11.259c-.111 0-.223-.039-.33-.056l-5.712-1.157c-.185-.009-.228-.317-.043-.364l2.237-.626a.18.18 0 0 0 .128-.103.2.2 0 0 0 0-.163l-3.025-8.636z"/><path fill="url(#d)" d="M11.606 5.413c.021.03.043.064.055.099.678 1.954 1.372 3.908 2.045 5.863.06.162-.167.3-.275.175-.578-.613-1.127-1.243-1.692-1.86-.09-.085-.223-.03-.283.06l-5.889 7.042c-.068.072-.128.184-.24.197-.086 0-.137-.065-.184-.129v-.107c2.156-3.78 4.311-7.556 6.463-11.34"/><path fill="url(#e)" d="M9.806 12.12c.111-.034.257.043.218.18-.227.81-.471 1.616-.707 2.417-.038.103.056.197.15.201 3.082.63 6.163 1.282 9.244 1.908.06.008.099.055.146.094v.128l-.086.095H5.691c1.372-1.672 2.739-3.36 4.115-5.023"/></g><defs><linearGradient id="b" x1="4.466" x2="29.207" y1="4.161" y2="32.58" gradientUnits="userSpaceOnUse"><stop stop-color="#1A1E21"/><stop offset="1" stop-color="#06060A"/></linearGradient><linearGradient id="c" x1="11.918" x2="18.857" y1="5.143" y2="16.389" gradientUnits="userSpaceOnUse"><stop stop-color="#307CC0"/><stop offset="1" stop-color="#58BFDC"/></linearGradient><linearGradient id="d" x1="12.518" x2="4.989" y1="7.967" y2="16.86" gradientUnits="userSpaceOnUse"><stop stop-color="#388BC7"/><stop offset="1" stop-color="#58BFDC"/></linearGradient><linearGradient id="e" x1="5.691" x2="18.146" y1="17.143" y2="17.143" gradientUnits="userSpaceOnUse"><stop stop-color="#ACADAD"/><stop offset=".47" stop-color="#DEDFDF"/><stop offset="1" stop-color="#B1B2B2"/></linearGradient><clipPath id="a"><path fill="#fff" d="M0 0h24v24H0z"/></clipPath></defs></svg>
